img/flower-1.svg

<svg width="296" height="490" viewBox="0 0 296 490" fill="none" xmlns="http://www.w3.org/2000/svg">
<path d="M156.932 160.003L157.169 162.842L156.725 177.775L151.752 202.62L147.233 219.4L146.887 222.012L139.35 246.545L130.88 270.028L128.326 276.587L132.86 270.112L142.166 260.001L150.775 251.679L163.459 241.511L172.537 235.431L183.364 230.033L194.078 226.65L206.307 224.544L209.103 224.259L210.852 224.94L208.654 235.758L201.69 253.647L194.716 264.665L188.784 271.283L179.824 278.781L170.162 284.634L162.595 288.555L156.308 290.914L144.779 294.666L133.947 296.629L124.163 297.627L119.036 297.004L111.138 313.843L102.771 328.439L92.542 344.37C92.542 344.37 76.5625 367.259 63.7606 380.644C50.9586 394.028 15.7748 431.632 15.7748 431.632L8.79566 439.215L6 439.5L3.76286 434.661L10.1591 426.851C10.1591 426.851 44.7048 389.836 57.0978 376.828C69.4908 363.821 84.832 341.521 84.832 341.521L97.7332 320.45L102.771 312L112.5 294.666L116 287L111.789 281.136L107.581 271.258L105.234 260.044L104.755 250.931L105.441 242.271L107.639 231.454L109.496 226.683L111.595 228.187L115.918 236.05L118.259 243.828L120.26 257.654L120.976 269.606L120.986 276.476L120.408 279.685L129.926 255.237L137.349 232.72L141.291 219.147L146.852 197.965L152.986 170.14L156.932 160.003Z" fill="#7BB361"/>
<path d="M217.378 66.7997L210.384 64.0769L205.84 63.6812L198.618 64.99L192.913 67.5758L186.048 73.1432L181.163 78.7949L175.7 87.655L170.01 100.547L170.583 93.903L170.336 84.1934L168.691 74.6263L164.952 66.9906L161.45 62.1939L156.318 58.136L151.072 56.0939L147.926 55.5557L140.354 56.0413L134.649 58.6272L129.877 62.2631L125.807 67.5454L123.718 72.9121L123.14 76.1205L123.15 82.9911L125.141 89.9461L126.895 94.0621L128.762 96.1623L128.298 97.3549L130.866 101.102L139.619 111.376L134.605 108.737L117.703 102.157L114.556 101.619L106.634 101.281L98.8295 102.363L92.3096 105.319L86.0269 111.113L82.4263 118.638L81.8534 125.281L82.792 129.767L86.4127 135.983L90.9619 139.814L102.036 144.125L107.163 144.748L113.92 144.632L125.103 143.492L133.139 141.813L126.387 145.365L117.309 151.444L108.932 159.17L104.397 165.645L101.38 173.397L101.034 176.009L101.627 183.106L104.665 189.095L108.982 193.523L116.559 196.472L119.122 196.784L127.509 195.929L134.029 192.973L140.663 188.002L146.827 180.789L152.986 170.14L156.725 177.775L158.133 184.503L160.707 191.685L165.493 198.355L171.208 202.64L175.871 204.455L180.998 205.078L186.589 204.508L192.062 202.518L197.88 197.917L202.414 191.442L203.689 186.445L204.262 179.801L203.204 173.896L200.048 166.487L196.077 159.448L187.324 149.174L192.337 151.812L202.596 156.493L212.969 159.157L222.29 159.352L230.326 157.674L237.31 153.526L242.195 147.875L244.749 141.315L245.094 138.703L244.501 131.606L241.464 125.616L235.981 120.735L225.489 116.651L214.42 115.775L201.025 117.427L192.989 119.105L200.556 115.185L207.54 111.037L216.732 102.942L222.081 96.0973L225.795 86.5565L226.254 81.9286L225.197 76.0237L224.031 75.5699L224.496 74.3773L221.927 70.6307L217.378 66.7997Z" fill="#F1C75F"/>
<path d="M168.983 115.254L173.997 117.892L177.731 122.093L179.603 127.628L179.262 133.676L176.59 138.815L172.402 142.678L166.697 145.264L161.106 145.834L155.045 144.161L150.496 140.33L147.458 134.341L147.334 129.486L149.888 122.927L153.494 118.837L159.431 115.655L166.42 114.943L168.983 115.254Z" fill="#FDFDFD"/>
</svg>

<svg width="296" height="490" fill="none" xmlns="http://www.w3.org/2000/svg"><path d="M156.932 160.003l.237 2.839-.444 14.933-4.973 24.845-4.519 16.78-.346 2.612-7.537 24.533-8.47 23.483-2.554 6.559 4.534-6.475 9.306-10.111 8.609-8.322 12.684-10.168 9.078-6.08 10.827-5.398 10.714-3.383 12.229-2.106 2.796-.285 1.749.681-2.198 10.818-6.964 17.889-6.974 11.018-5.932 6.618-8.96 7.498-9.662 5.853-7.567 3.921-6.287 2.359-11.529 3.752-10.832 1.963-9.784.998-5.127-.623-7.898 16.839-8.367 14.596-10.229 15.931s-15.98 22.889-28.781 36.274c-12.802 13.384-47.986 50.988-47.986 50.988l-6.98 7.583L6 439.5l-2.237-4.839 6.396-7.81s34.546-37.015 46.939-50.023c12.393-13.007 27.734-35.307 27.734-35.307l12.901-21.071 5.038-8.45 9.729-17.334L116 287l-4.211-5.864-4.208-9.878-2.347-11.214-.479-9.113.686-8.66 2.198-10.817 1.857-4.771 2.099 1.504 4.323 7.863 2.341 7.778 2.001 13.826.716 11.952.01 6.87-.578 3.209 9.518-24.448 7.423-22.517 3.942-13.573 5.561-21.182 6.134-27.825 3.946-10.137z" fill="#7BB361"/><path d="M217.378 66.8l-6.994-2.723-4.544-.396-7.222 1.309-5.705 2.586-6.865 5.567-4.885 5.652-5.463 8.86-5.69 12.892.573-6.644-.247-9.71-1.645-9.567-3.739-7.635-3.502-4.797-5.132-4.058-5.246-2.042-3.146-.538-7.572.485-5.705 2.586-4.772 3.636-4.07 5.282-2.089 5.367-.578 3.209.01 6.87 1.991 6.955 1.754 4.116 1.867 2.1-.464 1.193 2.568 3.747 8.753 10.274-5.014-2.639-16.902-6.58-3.147-.538-7.922-.338-7.805 1.082-6.52 2.956-6.282 5.794-3.6 7.525-.574 6.643.939 4.486 3.62 6.216 4.55 3.831 11.074 4.311 5.127.623 6.757-.116 11.183-1.14 8.036-1.679-6.752 3.552-9.078 6.079-8.377 7.726-4.535 6.475-3.017 7.752-.346 2.612.593 7.097 3.038 5.989 4.317 4.428 7.577 2.949 2.563.312 8.387-.855 6.52-2.956 6.634-4.971 6.164-7.213 6.159-10.649 3.739 7.635 1.408 6.728 2.574 7.182 4.786 6.67 5.715 4.285 4.663 1.815 5.127.623 5.591-.57 5.473-1.99 5.818-4.601 4.534-6.475 1.275-4.997.573-6.644-1.058-5.905-3.156-7.409-3.971-7.039-8.753-10.274 5.013 2.638 10.259 4.681 10.373 2.664 9.321.195 8.036-1.678 6.984-4.148 4.885-5.651 2.554-6.56.345-2.612-.593-7.097-3.037-5.99-5.483-4.881-10.492-4.084-11.069-.876-13.395 1.652-8.036 1.678 7.567-3.92 6.984-4.148 9.192-8.095 5.349-6.845 3.714-9.54.459-4.628-1.057-5.905-1.166-.454.465-1.193-2.569-3.746-4.549-3.831z" fill="#F1C75F"/><path d="M168.983 115.254l5.014 2.638 3.734 4.201 1.872 5.535-.341 6.048-2.672 5.139-4.188 3.863-5.705 2.586-5.591.57-6.061-1.673-4.549-3.831-3.038-5.989-.124-4.855 2.554-6.559 3.606-4.09 5.937-3.182 6.989-.712 2.563.311z" fill="#FDFDFD"/></svg>
